tools/download-figma-icons/icons/outlined-large/hourglass.svg

<svg width="64" height="64" viewBox="0 0 64 64" fill="none" xmlns="http://www.w3.org/2000/svg"><path d="M49 18.85V14h.57c1.34 0 2.43-1.09 2.43-2.43V5.43C52 4.09 50.91 3 49.57 3H14.43C13.09 3 12 4.09 12 5.43v6.14c0 1.34 1.09 2.43 2.43 2.43H15v4.85c0 1.91.96 3.72 2.57 4.85L29.39 32l-11.81 8.29C15.97 41.42 15 43.24 15 45.15V50h-.57C13.09 50 12 51.09 12 52.43v6.14c0 1.34 1.09 2.43 2.43 2.43h35.14c1.34 0 2.43-1.09 2.43-2.43v-6.14c0-1.34-1.09-2.43-2.43-2.43H49v-4.85c0-1.91-.96-3.72-2.57-4.85L34.61 32l11.81-8.29c1.61-1.13 2.58-2.95 2.58-4.86ZM15 6h34v5H15V6Zm34 52H15v-5h34v5Zm-3-12.85V50H18v-4.85c0-.93.49-1.83 1.3-2.4l12.71-8.92 12.69 8.92c.81.57 1.3 1.47 1.3 2.4Zm0-26.3c0 .93-.49 1.83-1.3 2.4l-12.71 8.92-12.69-8.92c-.81-.57-1.3-1.47-1.3-2.4V14h28v4.85Z" fill="currentColor"/></svg>

<svg width="64" height="64" viewBox="0 0 64 64" fill="none" xmlns="http://www.w3.org/2000/svg">
<path d="M49 18.85V14H49.57C50.91 14 52 12.91 52 11.57V5.43C52 4.09 50.91 3 49.57 3H14.43C13.09 3 12 4.09 12 5.43V11.57C12 12.91 13.09 14 14.43 14H15V18.85C15 20.76 15.96 22.57 17.57 23.7L29.39 32L17.58 40.29C15.97 41.42 15 43.24 15 45.15V50H14.43C13.09 50 12 51.09 12 52.43V58.57C12 59.91 13.09 61 14.43 61H49.57C50.91 61 52 59.91 52 58.57V52.43C52 51.09 50.91 50 49.57 50H49V45.15C49 43.24 48.04 41.43 46.43 40.3L34.61 32L46.42 23.71C48.03 22.58 49 20.76 49 18.85ZM15 6H49V11H15V6ZM49 58H15V53H49V58ZM46 45.15V50H18V45.15C18 44.22 18.49 43.32 19.3 42.75L32.01 33.83L44.7 42.75C45.51 43.32 46 44.22 46 45.15ZM46 18.85C46 19.78 45.51 20.68 44.7 21.25L31.99 30.17L19.3 21.25C18.49 20.68 18 19.78 18 18.85V14H46V18.85Z" fill="black"/>
</svg>
